packages/storefront-lwc/src/assets/fonts/flags/4x3/qa.svg

<svg height="480" width="640" xmlns="http://www.w3.org/2000/svg"><path d="m0 0h640v480h-640z" fill="#8d1b3d"/><path d="m0 0v480h158.4l97.745-26.666-97.745-26.668 97.745-26.666-97.745-26.666 97.745-26.668-97.745-26.666 97.745-26.666-97.745-26.668 97.745-26.666-97.745-26.666 97.745-26.668-97.745-26.666 97.745-26.666-97.745-26.668 97.745-26.666-97.745-26.666 97.745-26.668-97.745-26.666z" fill="#fff"/></svg>

<svg xmlns="http://www.w3.org/2000/svg" height="480" width="640" id="flag-icon-css-qa">
  <path fill="#8d1b3d" d="M0 0h640v480H0z"/>
  <path d="M0 0v480h158.4l97.745-26.666-97.745-26.668L256.145 400 158.4 373.334l97.745-26.668L158.4 320l97.745-26.666-97.745-26.668L256.145 240 158.4 213.334l97.745-26.668L158.4 160l97.745-26.666-97.745-26.668L256.145 80 158.4 53.334l97.745-26.668L158.4 0H0z" fill="#fff"/>
</svg>
